packages/storybook/src/stories/assets/accessibility.svg

<svg width="48" height="48" viewBox="0 0 48 48" fill="none" xmlns="http://www.w3.org/2000/svg">
  <title>Accessibility</title>
  <circle cx="24.334" cy="24" r="24" fill="#A849FF" fill-opacity="0.3"/>
  <path fill-rule="evenodd" clip-rule="evenodd" d="M27.8609 11.585C27.8609 9.59506 26.2497 7.99023 24.2519 7.99023C22.254 7.99023 20.6429 9.65925 20.6429 11.585C20.6429 13.575 22.254 15.1799 24.2519 15.1799C26.2497 15.1799 27.8609 13.575 27.8609 11.585ZM21.8922 22.6473C21.8467 23.9096 21.7901 25.4788 21.5897 26.2771C20.9853 29.0462 17.7348 36.3314 17.3325 37.2275C17.1891 37.4923 17.1077 37.7955 17.1077 38.1178C17.1077 39.1519 17.946 39.9902 18.9802 39.9902C19.6587 39.9902 20.253 39.6293 20.5814 39.0889L20.6429 38.9874L24.2841 31.22C24.2841 31.22 27.5529 37.9214 27.9238 38.6591C28.2948 39.3967 28.8709 39.9902 29.7168 39.9902C30.751 39.9902 31.5893 39.1519 31.5893 38.1178C31.5893 37.7951 31.3639 37.2265 31.3639 37.2265C30.9581 36.3258 27.698 29.0452 27.0938 26.2771C26.8975 25.4948 26.847 23.9722 26.8056 22.7236C26.7927 22.333 26.7806 21.9693 26.7653 21.6634C26.7008 21.214 27.0231 20.8289 27.4097 20.7005L35.3366 18.3253C36.3033 18.0685 36.8834 16.9773 36.6256 16.0144C36.3678 15.0515 35.2722 14.4737 34.3055 14.7305C34.3055 14.7305 26.8619 17.1057 24.2841 17.1057C21.7062 17.1057 14.456 14.7947 14.456 14.7947C13.4893 14.5379 12.3937 14.9873 12.0715 15.9502C11.7493 16.9131 12.3293 18.0044 13.3604 18.3253L21.2873 20.7005C21.674 20.8289 21.9318 21.214 21.9318 21.6634C21.9174 21.9493 21.9053 22.2857 21.8922 22.6473Z" fill="#A470D5"/>
</svg>

<svg xmlns="http://www.w3.org/2000/svg" width="48" height="48" fill="none">
  <circle cx="24.33" cy="24" r="24" fill="#A849FF" fill-opacity=".3"/>
  <path fill="#A470D5" fill-rule="evenodd" d="M27.86 11.585a3.596 3.596 0 0 0-3.608-3.595c-1.998 0-3.61 1.67-3.61 3.595a3.596 3.596 0 0 0 3.61 3.595 3.596 3.596 0 0 0 3.609-3.595m-5.968 11.062c-.045 1.263-.102 2.832-.302 3.63-.605 2.77-3.855 10.054-4.257 10.95a1.872 1.872 0 0 0 3.249 1.861l.06-.1 3.642-7.768s3.269 6.701 3.64 7.44c.37.737.947 1.33 1.793 1.33a1.87 1.87 0 0 0 1.872-1.872c0-.323-.225-.892-.225-.892-.406-.9-3.666-8.18-4.27-10.949-.197-.782-.247-2.305-.288-3.553a67 67 0 0 0-.04-1.06c-.065-.45.257-.835.644-.963l7.927-2.376c.966-.256 1.546-1.348 1.289-2.31-.258-.963-1.354-1.541-2.32-1.285 0 0-7.444 2.376-10.022 2.376s-9.828-2.311-9.828-2.311c-.967-.257-2.062.192-2.384 1.155s.257 2.054 1.288 2.375l7.927 2.376c.387.128.645.513.645.962-.015.286-.027.623-.04.984" clip-rule="evenodd"/>
</svg>
